public/favicon.svg

<svg width="24" height="24" viewBox="0 0 24 24" fill="none" xmlns="http://www.w3.org/2000/svg">
<path d="M11.3701 0.493338C11.5324 -0.164446 12.4676 -0.164446 12.6299 0.493338L14.6895 8.83609C14.7472 9.07006 14.9299 9.25275 15.1639 9.31051L23.5067 11.3701C24.1644 11.5324 24.1644 12.4676 23.5067 12.6299L15.1639 14.6895C14.9299 14.7472 14.7472 14.9299 14.6895 15.1639L12.6299 23.5067C12.4676 24.1644 11.5324 24.1644 11.3701 23.5067L9.31051 15.1639C9.25275 14.9299 9.07006 14.7472 8.83609 14.6895L0.493338 12.6299C-0.164446 12.4676 -0.164446 11.5324 0.493338 11.3701L8.83609 9.31051C9.07006 9.25275 9.25275 9.07006 9.31051 8.83609L11.3701 0.493338Z" fill="#FFE500"/>
</svg>

<svg xmlns="http://www.w3.org/2000/svg" fill="none" width="24" height="24" viewBox="0 0 24 24"><path fill="#FFE500" d="M11.37.493c.162-.657 1.098-.657 1.26 0l2.06 8.343c.057.234.24.417.474.475l8.343 2.06c.657.161.657 1.097 0 1.259l-8.343 2.06a.649.649 0 0 0-.474.474l-2.06 8.343c-.162.657-1.098.657-1.26 0l-2.06-8.343a.649.649 0 0 0-.474-.474L.493 12.63c-.657-.162-.657-1.098 0-1.26l8.343-2.06a.649.649 0 0 0 .475-.474L11.37.493Z"/></svg>
